epam-assets/icon-sources/18/delete-outline.svg

<svg width="18" height="18" viewBox="0 0 18 18" fill="none" xmlns="http://www.w3.org/2000/svg">
<g id="18/delete-outline">
<path id="icon" d="M6.75 2.25V3H3V4.5H3.75V14.25C3.75 14.6478 3.90804 15.0294 4.18934 15.3107C4.47064 15.592 4.85218 15.75 5.25 15.75H12.75C13.1478 15.75 13.5294 15.592 13.8107 15.3107C14.092 15.0294 14.25 14.6478 14.25 14.25V4.5H15V3H11.25V2.25H6.75ZM5.25 4.5H12.75V14.25H5.25V4.5ZM6.75 6V12.75H8.25V6H6.75ZM9.75 6V12.75H11.25V6H9.75Z" fill="#6C6F80"/>
</g>
</svg>

<svg xmlns="http://www.w3.org/2000/svg" width="18" height="18" fill="none" viewBox="0 0 18 18">
  <path fill="#6C6F80" d="M6.75 2.25V3H3v1.5h.75v9.75a1.5 1.5 0 0 0 1.5 1.5h7.5a1.5 1.5 0 0 0 1.5-1.5V4.5H15V3h-3.75v-.75h-4.5ZM5.25 4.5h7.5v9.75h-7.5V4.5ZM6.75 6v6.75h1.5V6h-1.5Zm3 0v6.75h1.5V6h-1.5Z"/>
</svg>
